public/images/skills/angular.svg

<svg xmlns="http://www.w3.org/2000/svg" width="165.907" height="175.75" viewBox="0 0 165.907 175.75"><path fill="#B2B2B2" d="M82.688 0L0 29.1l13.066 108.335 69.71 38.314 70.07-38.835 13.06-108.33L82.69 0zm0 0"/><path fill="#B52E31" d="M157.66 34.846L82.495 9.214v157.38l62.992-34.86 12.17-96.888zm0 0"/><path fill="#E23237" d="M9.28 35.308l11.195 96.89 62.02 34.397V9.21L9.278 35.31zm0 0"/><path fill="#F2F2F2" d="M99.918 87.493L82.632 51.396 67.415 87.493h32.503zm6.59 15.18H60.69l-10.25 25.64-19.067.35L82.497 14.93l52.907 113.733H117.73l-11.22-25.99zm0 0"/><path fill="#B2B2B2" d="M82.496 14.93l.136 36.466L99.9 87.52H82.534l-.04 15.128 24.012.023 11.224 25.997 18.245.34-53.48-114.078zm0 0"/></svg>

<?xml version="1.0" encoding="utf-8"?>
<!-- Generator: Adobe Illustrator 16.0.4, SVG Export Plug-In . SVG Version: 6.00 Build 0)  -->
<!DOCTYPE svg PUBLIC "-//W3C//DTD SVG 1.1//EN" "http://www.w3.org/Graphics/SVG/1.1/DTD/svg11.dtd">
<svg version="1.1" id="Layer_1" xmlns="http://www.w3.org/2000/svg" xmlns:xlink="http://www.w3.org/1999/xlink" x="0px" y="0px"
	 width="165.907px" height="175.75px" viewBox="0 0 165.907 175.75" enable-background="new 0 0 165.907 175.75"
	 xml:space="preserve">
<g>
	<path fill="#B2B2B2" d="M82.688,0L0,29.1l13.066,108.335l69.71,38.314l70.069-38.834l13.062-108.331L82.688,0z M82.688,0"/>
	<path fill="#B52E31" d="M157.659,34.846L82.496,9.214v157.381l62.992-34.861L157.659,34.846z M157.659,34.846"/>
	<path fill="#E23237" d="M9.279,35.308l11.196,96.889l62.019,34.398V9.211L9.279,35.308z M9.279,35.308"/>
	<path fill="#F2F2F2" d="M99.918,87.493L82.632,51.396L67.415,87.493H99.918z M106.509,102.672h-45.82l-10.251,25.64l-19.067,0.352
		L82.496,14.929l52.907,113.734h-17.672L106.509,102.672z M106.509,102.672"/>
	<path fill="#B2B2B2" d="M82.496,14.929l0.136,36.467l17.268,36.125H82.534l-0.039,15.127l24.011,0.023l11.224,25.996l18.245,0.339
		L82.496,14.929z M82.496,14.929"/>
</g>
</svg>
